icon/cg/erase.svg

<svg viewBox="0 0 24 24" fill="none" xmlns="http://www.w3.org/2000/svg" height="1em" width="1em">
  <path fill-rule="evenodd" clip-rule="evenodd" d="M3.49997 12.8995C2.71892 13.6805 2.71892 14.9468 3.49997 15.7279L7.35785 19.5858H4.08576C3.53347 19.5858 3.08576 20.0335 3.08576 20.5858C3.08576 21.1381 3.53347 21.5858 4.08576 21.5858H20.0858C20.638 21.5858 21.0858 21.1381 21.0858 20.5858C21.0858 20.0335 20.638 19.5858 20.0858 19.5858H10.9558L20.4705 10.071C21.2516 9.28999 21.2516 8.02366 20.4705 7.24261L16.2279 2.99997C15.4468 2.21892 14.1805 2.21892 13.3995 2.99997L3.49997 12.8995ZM7.82579 11.4021L4.91418 14.3137L9.15683 18.5563L12.0684 15.6447L7.82579 11.4021ZM9.24 9.98787L13.4826 14.2305L19.0563 8.65683L14.8137 4.41418L9.24 9.98787Z" fill="currentColor"/>
</svg>

<svg width="24" height="24" fill="none" xmlns="http://www.w3.org/2000/svg"><path fill-rule="evenodd" clip-rule="evenodd" d="M3.5 12.9a2 2 0 0 0 0 2.828l3.858 3.858H4.086a1 1 0 1 0 0 2h16a1 1 0 0 0 0-2h-9.13l9.515-9.515a2 2 0 0 0 0-2.828L16.227 3a2 2 0 0 0-2.829 0L3.5 12.9Zm4.326-1.498-2.912 2.912 4.243 4.242 2.911-2.911-4.242-4.243ZM9.24 9.988l4.243 4.242 5.573-5.573-4.242-4.243L9.24 9.988Z" fill="currentColor"/></svg>
